X:939
T:Xiringelu (MG 07)
R:Saltn
C:Versin recoyida en Pravia
S:Msica Tradicional Asturiana, (C) Tello & Tito. Asturies, 2001.
S:http://pagina.de/MusTradAst <telloytito@asturies.org>
A:Asturies
O:Pravia
Z:Mtodu de gaita 07
M:2/4
L:1/8
Q:1/4=150
E:Nivel 1
K:C
|G2 GF|E2 EF|~G2 E2|G2 GF|E2 EF|~G2 G2|
|: EF DE|C2 ~DE|B,4|EF DE|C2 ~EB,|C4 :|
